X:900
T:The Aughdarra
M:4/4
L:1/8
K:Bm
de|:fBBA FEFG|A2 FB ABde|fBBA FEDA|BdcA B2 de|
fBBA FEFG| ABFB AFDe|fbaf efdf|1 edBA B2 de:|2 edBA B2 Ac||
|:d2 fd Adfa|bfaf efdB|d2 fd Adfa| bfaf e2 ef|
d2 fd Adfa|bfaf efdf|fBBA FEFG|1ABBA B2 Ac:|2 ABBA B2 de|>|
